X:85
T: John Kelly's
Z: B.Black
R: slide
M: 12/8
L: 1/8
K: D
g | f2 A ABA B2 A d2 d | cdc cBA g3 f2 e |
f2 A ABA B2 A d2 d | cdc cBc d3-d2 :|
f | g3 gfe f3 fed | Bee efe d2 B BAB |
g3 gfe f3 fed | Bee efa b3 a2 :|
